X:46
T:Lord Howe. ThoH.046
Q:1/2=90
M:3/2
L:1/8
B:Thompson's Compleat Collection of 120 Favourite Hornpipes.
Z:Village Music Project, Simon Wilson 2016
O:England.
K:Bb
B,4D2F2B2AG|F2E2D2C2B,4|f2edc2B2A2G2|F2G2A2B2c4|e2dcd2E2D4|d2cBc2D2C4|
c2BAB2AG FEDC|B,CDE FGAcB4:||:(f3g/_a/)g2f2e2d2|(F3G/_A/)G2F2E2D2|(e3f/g/)f2e2d2c2|
(E3F/G/)F2E2D2C2|B,2D2F_AGFG2E2|C2E2 GBAG A2F2|d2cBc2BAB2AG|F2E2D2C2B,4:|

